X:1
T: The Curragh Races
C:
R:Reel
Q: 232
K:Am
M:4/4
L:1/8
|:a|e2 ((3cBA) eA ((3cBA)|G2 Bc dB Gg|eA ((3cBA) e^f ge|dB GB cA Aa|
eA ((3cBA) eA ((3cBA)|G2 Bc dB GB|cB cA B2 ge|1dB GB cA Aa:|2dB GB cA AB|
|:((3cdc) ec gc ec|((3cdc) ge dB GB|((3cdc) ec gc ec|dB GB cA AB|
((3cdc) ec gc ef|((3gag) ge dB GB|cB cA B2 ge|1dB GB cA AB:|2dB GB cA A||
